images/fourth-place.svg

<?xml version="1.0" encoding="UTF-8" standalone="no"?>
<!-- Uploaded to: SVG Repo, www.svgrepo.com, Transformed by: SVG Repo Mixer Tools -->

<svg
   fill="#a1d99b"
   version="1.1"
   id="Capa_1"
   width="800px"
   height="800px"
   viewBox="0 0 31.1 31.101"
   xml:space="preserve"
   sodipodi:docname="fourth-place.svg"
   inkscape:version="1.3 (0e150ed6c4, 2023-07-21)"
   xmlns:inkscape="http://www.inkscape.org/namespaces/inkscape"
   xmlns:sodipodi="http://sodipodi.sourceforge.net/DTD/sodipodi-0.dtd"
   xmlns="http://www.w3.org/2000/svg"
   xmlns:svg="http://www.w3.org/2000/svg"><defs
   id="defs3"><rect
     x="28.378378"
     y="9.4594595"
     width="752.7027"
     height="766.21622"
     id="rect3" /><filter
     style="color-interpolation-filters:sRGB;"
     inkscape:label="Drop Shadow"
     id="filter17"
     x="-0.0063781408"
     y="-0.0060367084"
     width="1.0592636"
     height="1.0560911"><feFlood
       result="flood"
       in="SourceGraphic"
       flood-opacity="0.686275"
       flood-color="rgb(0,0,0)"
       id="feFlood16" /><feGaussianBlur
       result="blur"
       in="SourceGraphic"
       stdDeviation="2.000000"
       id="feGaussianBlur16" /><feOffset
       result="offset"
       in="blur"
       dx="35.000000"
       dy="35.000000"
       id="feOffset16" /><feComposite
       result="comp1"
       operator="in"
       in="flood"
       in2="offset"
       id="feComposite16" /><feComposite
       result="comp2"
       operator="over"
       in="SourceGraphic"
       in2="comp1"
       id="feComposite17" /></filter></defs><sodipodi:namedview
   id="namedview3"
   pagecolor="#ffffff"
   bordercolor="#000000"
   borderopacity="0.25"
   inkscape:showpageshadow="2"
   inkscape:pageopacity="0.0"
   inkscape:pagecheckerboard="0"
   inkscape:deskcolor="#d1d1d1"
   inkscape:zoom="0.52325902"
   inkscape:cx="405.15307"
   inkscape:cy="319.1536"
   inkscape:window-width="1440"
   inkscape:window-height="830"
   inkscape:window-x="-6"
   inkscape:window-y="-6"
   inkscape:window-maximized="1"
   inkscape:current-layer="Capa_1"
   showguides="false" />&#10;&#10;<g
   id="SVGRepo_bgCarrier"
   stroke-width="0" />&#10;&#10;<g
   id="SVGRepo_tracerCarrier"
   stroke-linecap="round"
   stroke-linejoin="round" />&#10;&#10;<g
   id="SVGRepo_iconCarrier"> <g
   id="g3"> <g
   id="g2">  <path
   d="m 26.633,21.186 c 0.272,-0.395 0.456,-0.812 0.535,-1.212 0.085,-0.421 0.062,-0.816 -0.049,-1.155 L 27.117,18.817 C 27.115,18.81 27.113,18.802 27.111,18.796 27.105,18.783 27.099,18.769 27.097,18.755 L 27.095,18.75 c -0.146,-0.416 -0.164,-0.931 -0.052,-1.461 l -0.005,-0.003 c 0.021,-0.09 0.043,-0.179 0.072,-0.27 0.08,-0.242 0.184,-0.467 0.303,-0.671 0.452,-0.637 1.753,-1.187 1.753,-3.176 0,-2.082 -1.678,-2.646 -1.994,-3.552 C 27.164,9.597 27.154,9.586 27.146,9.568 27.129,9.524 27.112,9.482 27.097,9.437 26.896,8.802 26.879,8.172 27.045,7.675 L 27.058,7.641 C 27.166,7.32 27.193,6.935 27.123,6.526 H 27.122 V 6.523 C 27.113,6.471 27.101,6.419 27.09,6.366 L 27.089,6.35 C 27.077,6.303 27.065,6.255 27.051,6.208 L 27.04,6.172 C 27.03,6.131 27.016,6.089 27,6.049 L 26.98,5.995 26.941,5.896 26.911,5.818 26.881,5.754 C 26.864,5.717 26.848,5.682 26.83,5.646 L 26.821,5.629 C 26.738,5.469 26.642,5.311 26.531,5.159 L 26.511,5.132 26.5,5.118 C 26.197,4.707 25.835,4.388 25.46,4.179 25.086,3.968 24.701,3.867 24.348,3.87 h -0.004 c -0.009,0 -0.016,0 -0.022,-10e-4 C 24.307,3.87 24.294,3.871 24.278,3.87 H 24.272 C 23.833,3.882 23.336,3.739 22.867,3.467 L 22.864,3.47 C 22.787,3.423 22.708,3.372 22.632,3.317 22.095,2.921 21.714,2.42 21.558,1.921 L 21.546,1.885 C 21.446,1.562 21.242,1.236 20.944,0.946 V 0.945 C 20.906,0.907 20.866,0.87 20.825,0.836 L 20.811,0.823 C 20.774,0.792 20.737,0.76 20.698,0.73 L 20.669,0.707 20.563,0.63 20.516,0.598 20.426,0.539 20.356,0.496 20.294,0.461 C 20.259,0.44 20.224,0.422 20.189,0.404 L 20.172,0.395 C 20.013,0.314 19.842,0.242 19.662,0.184 L 19.63,0.174 19.61,0.167 C 19.124,0.015 18.643,-0.03 18.216,0.02 17.789,0.071 17.418,0.214 17.135,0.427 l -0.004,0.001 c -0.006,0.006 -0.013,0.01 -0.02,0.014 -0.01,0.011 -0.021,0.019 -0.035,0.026 l -0.003,0.003 c -0.351,0.27 -0.834,0.444 -1.375,0.502 V 0.978 C 15.649,0.983 15.599,0.984 15.55,0.985 15.5,0.984 15.45,0.984 15.402,0.978 V 0.974 C 14.861,0.916 14.377,0.742 14.027,0.472 L 14.024,0.469 C 14.012,0.46 14,0.453 13.99,0.441 13.983,0.437 13.976,0.433 13.97,0.427 L 13.967,0.426 C 13.683,0.213 13.312,0.07 12.885,0.019 12.459,-0.031 11.979,0.014 11.491,0.166 L 11.472,0.173 11.44,0.184 c -0.18,0.058 -0.35,0.13 -0.51,0.211 l -0.017,0.009 c -0.035,0.018 -0.07,0.036 -0.105,0.057 l -0.062,0.035 -0.07,0.043 -0.09,0.059 -0.047,0.032 -0.104,0.075 -0.03,0.024 C 10.366,0.759 10.329,0.79 10.292,0.821 L 10.278,0.834 C 10.237,0.868 10.197,0.905 10.159,0.943 L 10.158,0.944 C 9.86,1.234 9.657,1.561 9.557,1.883 L 9.545,1.92 C 9.39,2.419 9.009,2.921 8.472,3.316 8.395,3.373 8.315,3.423 8.239,3.47 L 8.235,3.466 C 7.766,3.738 7.27,3.881 6.831,3.87 H 6.825 C 6.809,3.871 6.795,3.87 6.781,3.869 6.772,3.87 6.767,3.87 6.757,3.87 H 6.754 C 6.399,3.867 6.016,3.967 5.642,4.178 5.267,4.387 4.905,4.706 4.602,5.117 L 4.59,5.132 4.57,5.16 C 4.458,5.311 4.363,5.47 4.28,5.63 L 4.271,5.646 C 4.254,5.682 4.237,5.717 4.221,5.754 L 4.191,5.818 4.16,5.896 4.121,5.996 4.103,6.049 C 4.088,6.089 4.074,6.131 4.063,6.171 L 4.052,6.208 C 4.038,6.254 4.024,6.302 4.014,6.35 L 4.011,6.367 C 3.999,6.419 3.986,6.473 3.978,6.523 v 0.002 0 C 3.908,6.935 3.935,7.319 4.044,7.641 L 4.056,7.675 C 4.222,8.172 4.205,8.802 4.004,9.437 3.99,9.481 3.972,9.523 3.955,9.567 3.946,9.585 3.936,9.597 3.929,9.616 c -0.316,0.906 -1.994,1.47 -1.994,3.552 0,1.989 1.301,2.539 1.753,3.176 0.119,0.204 0.222,0.429 0.303,0.671 0.029,0.091 0.052,0.18 0.072,0.27 l -0.005,0.003 c 0.113,0.53 0.096,1.045 -0.051,1.461 l -0.002,0.005 c -0.002,0.014 -0.008,0.028 -0.014,0.041 -0.002,0.008 -0.004,0.016 -0.006,0.021 l -0.002,0.002 c -0.112,0.339 -0.134,0.734 -0.049,1.155 0.079,0.399 0.263,0.817 0.535,1.212 L 0.79,28.078 h 3.924 l 1.993,3.022 3.391,-5.584 c 0.027,0.027 0.045,0.06 0.074,0.086 0.316,0.289 0.732,0.535 1.218,0.694 0.18,0.059 0.36,0.101 0.537,0.129 l 0.018,0.003 c 0.041,0.006 0.08,0.01 0.118,0.015 l 0.074,0.01 0.082,0.007 0.106,0.007 h 0.058 0.129 0.036 c 0.049,-0.003 0.099,-0.005 0.146,-0.01 l 0.018,-0.001 c 0.055,-0.005 0.108,-0.014 0.162,-0.021 h 10e-4 c 0.411,-0.061 0.767,-0.205 1.038,-0.408 l 0.029,-0.021 c 0.401,-0.299 0.976,-0.475 1.609,-0.494 0.633,0.02 1.208,0.195 1.609,0.494 l 0.028,0.021 c 0.271,0.203 0.627,0.349 1.039,0.408 v 0 c 0.055,0.007 0.107,0.016 0.162,0.021 l 0.019,0.001 c 0.048,0.005 0.098,0.007 0.146,0.01 h 0.036 0.13 0.057 l 0.106,-0.007 0.082,-0.007 0.074,-0.01 c 0.038,-0.005 0.077,-0.009 0.118,-0.015 l 0.018,-0.003 c 0.178,-0.028 0.357,-0.07 0.537,-0.129 0.485,-0.159 0.901,-0.405 1.219,-0.694 0.028,-0.026 0.047,-0.059 0.073,-0.086 l 3.392,5.584 1.992,-3.021 h 3.924 z m -1.376,-5.052 c -0.11,0.372 -0.239,0.736 -0.392,1.095 -0.516,1.218 -1.252,2.312 -2.191,3.251 -0.938,0.938 -2.031,1.677 -3.248,2.19 -1.229,0.519 -2.531,0.785 -3.875,0.799 C 14.208,23.455 12.905,23.189 11.677,22.67 10.459,22.154 9.366,21.418 8.428,20.48 7.489,19.542 6.751,18.447 6.237,17.229 6.085,16.872 5.956,16.506 5.845,16.134 5.723,15.688 5.433,14.497 5.433,13.249 5.433,11.668 5.845,10.364 5.845,10.364 5.955,9.993 6.084,9.628 6.237,9.268 6.752,8.05 7.49,6.958 8.429,6.019 9.367,5.081 10.46,4.343 11.678,3.828 12.907,3.309 14.209,3.043 15.552,3.03 c 1.343,0.013 2.646,0.279 3.875,0.798 1.217,0.515 2.311,1.253 3.248,2.191 0.939,0.939 1.678,2.032 2.191,3.249 0.152,0.359 0.281,0.725 0.392,1.096 0,0 0.412,1.304 0.412,2.885 -0.001,1.248 -0.291,2.439 -0.413,2.885 z"
   id="path7"
   style="display:none" /> </g> </g> <path
   style="font-variation-settings:'wght' 900;fill:#f9f9f9;stroke-width:1.35135"
   d=""
   id="path9"
   transform="matrix(0.03887625,0,0,0.03887625,-5e-4,0)" /></g>&#10;&#10;<path
   style="fill:#f9f9f9;stroke-width:0.675676"
   d=""
   id="path143"
   transform="matrix(0.03887625,0,0,0.03887625,-5e-4,0)" /><path
   style="fill:#338855;stroke-width:2.7027;fill-opacity:1;filter:url(#filter17)"
   d="m 586.35546,729.11751 c -22.674,-37.5687 -42.20895,-69.413 -43.41103,-70.7651 -1.26281,-1.42046 -6.90754,0.66643 -13.36948,4.94272 -16.10273,10.6563 -30.63379,15.08325 -49.50936,15.08325 -14.00318,0 -20.00405,-1.726 -38.96862,-11.20827 -19.79862,-9.8993 -24.59811,-11.20827 -41.09697,-11.20827 -16.49887,0 -21.29835,1.30897 -41.09697,11.20827 -18.96457,9.48227 -24.96544,11.20827 -38.96862,11.20827 -18.69187,0 -33.98863,-4.6076 -48.87145,-14.72073 -5.58557,-3.79549 -10.89143,-6.90089 -11.7908,-6.90089 -0.89938,0 -20.38056,31.00897 -43.29153,68.90883 -22.91097,37.89984 -42.3967,68.91336 -43.30164,68.91892 -0.90493,0.006 -12.45898,-16.38416 -25.67567,-36.42156 L 122.97297,721.7313 73.359489,721.6765 c -46.125452,-0.051 -49.486375,-0.38735 -47.805516,-4.78457 0.994382,-2.60135 21.800081,-42.17703 46.234886,-87.94594 l 44.426921,-83.21619 -5.34174,-10.47068 c -9.38697,-18.4 -11.124589,-32.16316 -6.5148,-51.60189 7.67208,-32.35189 1.17999,-54.70122 -23.123329,-79.60314 -23.6327,-24.21478 -28.494446,-35.28208 -28.494446,-64.86486 0,-29.63451 3.439138,-37.1777 30.567294,-67.0446 21.848291,-24.05397 26.829861,-37.56984 23.427351,-63.56248 -4.09979,-31.31929 -3.09689,-46.92829 3.93309,-61.21433 7.88509,-16.02376 24.69387,-33.50595 38.50412,-40.04672 5.49127,-2.60075 18.26154,-5.77203 28.37837,-7.04727 35.31696,-4.451741 54.19893,-18.068112 69.3662,-50.022087 15.62955,-32.927879 40.53936,-48.2487633 77.97489,-47.9587871 10.58371,0.081982 18.9486,2.7358754 36.87554,11.6993521 31.92973,15.964862 44.53363,15.964862 76.46336,0 17.92694,-8.9634767 26.29183,-11.6173704 36.87554,-11.6993521 37.43554,-0.2899762 62.34535,15.0309081 77.97489,47.9587871 15.16727,31.953975 34.04924,45.570346 69.36619,50.022087 10.11683,1.27524 22.88711,4.44652 28.37838,7.04727 13.81024,6.54077 30.61902,24.02296 38.50413,40.04672 7.02997,14.28604 8.03287,29.89504 3.93308,61.21433 -3.40251,25.99264 1.57906,39.50851 23.42735,63.56248 27.12817,29.8669 30.5673,37.41009 30.5673,67.0446 0,29.58278 -4.86176,40.65008 -28.49446,64.86486 -24.27416,24.87206 -30.24008,45.11244 -23.13203,78.47911 4.49003,21.07716 2.84652,34.39327 -6.50805,52.72973 l -5.33546,10.45838 47.00665,87.95016 47.00665,87.95019 -50.38741,0.0183 -50.3874,0.0183 -24.72306,37.883 -24.72305,37.88297 z M 453.35816,598.82016 C 542.20024,580.01762 616.81919,514.19878 646.31805,428.61678 702.27654,266.27018 595.795,97.484357 425.433,78.487868 331.75295,68.041922 235.15356,114.71034 182.15373,196.01925 c -29.69531,45.55664 -42.54307,89.30416 -42.44295,144.52129 0.13469,74.29311 25.12866,135.23584 76.56337,186.68432 43.05249,43.064 91.30555,66.42319 158.05017,76.51171 14.19276,2.14527 58.76971,-0.62773 79.03384,-4.91641 z"
   id="path149"
   transform="matrix(0.03887625,0,0,0.03887625,-5e-4,0)"
   inkscape:label="frilly-circle" /><path
   style="display:inline;fill:#f9f9f9;stroke-width:0.675676"
   d="M 386.48649,602.95968 C 324.41602,598.45504 268.59499,574.59571 225,533.93624 c -41.9731,-39.14679 -68.48208,-86.17166 -79.31183,-140.693 -6.8512,-34.49173 -7.27839,-64.30348 -1.40876,-98.31081 11.94706,-69.21849 52.16723,-131.36915 110.78816,-171.19659 59.46942,-40.403914 131.04509,-54.510828 199.32432,-39.285017 59.18841,13.198619 110.72056,45.611557 149.332,93.927557 5.98358,7.48749 17.53061,24.67431 22.54525,33.55679 26.28958,46.56698 37.8457,102.28374 32.1393,154.95672 -5.67259,52.36087 -24.12738,97.87029 -55.75843,137.5 -43.67796,54.72298 -106.40441,89.47779 -175.62298,97.30737 -9.03988,1.02253 -33.38779,1.77952 -40.54054,1.26042 z m 41.89189,-20.84025 c 45.93771,-6.37417 85.8248,-23.40763 121.46619,-51.87116 11.01294,-8.79503 28.35988,-26.14053 37.14795,-37.14488 28.6466,-35.87104 45.78022,-76.35324 51.98768,-122.83312 1.53318,-11.48005 1.72021,-44.90722 0.31568,-56.41892 -5.41076,-44.34711 -21.19112,-84.05451 -47.12784,-118.58561 -58.51878,-77.90956 -156.64807,-113.643793 -248.49186,-90.48946 -33.96519,8.56282 -65.725,24.32757 -93.33834,46.33074 -10.18077,8.11236 -29.78393,27.81829 -38.07462,38.27425 -28.62194,36.09707 -45.85173,77.69193 -51.5591,124.47008 -1.40453,11.5117 -1.2175,44.93887 0.31568,56.41892 6.19889,46.41568 23.42028,87.09722 51.99925,122.83618 8.75891,10.95331 26.11186,28.31692 37.00201,37.02475 37.35752,29.87129 82.40622,48.25191 129.70867,52.9233 9.41957,0.93024 39.35197,0.35491 48.64865,-0.93507 z"
   id="path144"
   inkscape:label="outer-circle"
   transform="matrix(0.03887625,0,0,0.03887625,-5e-4,0)" /><path
   style="fill:#338855;fill-opacity:1;stroke-width:1.9111"
   d="M 361.04821,579.91969 C 285.26413,566.19622 217.9984,515.79629 185.35633,448.27971 167.73401,411.82984 160.52909,380.91365 160.53846,341.7866 c 0.0162,-67.74092 23.83779,-125.28153 71.50411,-172.71701 46.16612,-45.94254 103.98893,-70.165248 167.37721,-70.116423 39.14992,0.03016 68.61819,6.877713 104.25385,24.225503 68.61031,33.40016 115.37735,94.07624 131.9613,171.20802 4.84888,22.55216 4.82658,68.95946 -0.0446,92.61094 -10.27537,49.8916 -31.43751,89.00401 -67.81242,125.33273 -28.9916,28.95476 -57.0637,46.32384 -95.33481,58.98662 -33.60603,11.11923 -78.39649,14.57826 -111.39494,8.60271 z"
   id="path6"
   transform="matrix(0.03887625,0,0,0.03887625,-5e-4,0)"
   inkscape:label="inner-circle" /><text
   xml:space="preserve"
   transform="matrix(0.03887625,0,0,0.03887625,8.0791828,-3.115058)"
   id="text3"
   style="font-size:533.333px;font-family:Castellar;-inkscape-font-specification:'Castellar, @wght=900';font-variation-settings:'wght' 900;white-space:pre;shape-inside:url(#rect3);display:inline;fill:#ffffff"><tspan
     x="28.378906"
     y="606.56007"
     id="tspan4"><tspan
       style="font-weight:bold;font-size:600px;font-family:'Bodoni MT';-inkscape-font-specification:'Bodoni MT, Bold'"
       id="tspan1">4</tspan></tspan></text></svg>

<?xml version="1.0" encoding="UTF-8" standalone="no"?>
<!-- Uploaded to: SVG Repo, www.svgrepo.com, Transformed by: SVG Repo Mixer Tools -->

<svg
   fill="#74c476"
   version="1.1"
   id="Capa_1"
   width="800px"
   height="800px"
   viewBox="0 0 31.1 31.101"
   xml:space="preserve"
   sodipodi:docname="fourth-place.svg"
   inkscape:version="1.3 (0e150ed6c4, 2023-07-21)"
   xmlns:inkscape="http://www.inkscape.org/namespaces/inkscape"
   xmlns:sodipodi="http://sodipodi.sourceforge.net/DTD/sodipodi-0.dtd"
   xmlns="http://www.w3.org/2000/svg"
   xmlns:svg="http://www.w3.org/2000/svg"><defs
   id="defs3"><rect
     x="36.486486"
     y="16.216216"
     width="741.89189"
     height="725.67568"
     id="rect3" /></defs><sodipodi:namedview
   id="namedview3"
   pagecolor="#ffffff"
   bordercolor="#000000"
   borderopacity="0.25"
   inkscape:showpageshadow="2"
   inkscape:pageopacity="0.0"
   inkscape:pagecheckerboard="0"
   inkscape:deskcolor="#d1d1d1"
   inkscape:zoom="0.74"
   inkscape:cx="400"
   inkscape:cy="400"
   inkscape:window-width="1440"
   inkscape:window-height="830"
   inkscape:window-x="-6"
   inkscape:window-y="-6"
   inkscape:window-maximized="1"
   inkscape:current-layer="Capa_1" />&#10;&#10;<g
   id="SVGRepo_bgCarrier"
   stroke-width="0" />&#10;&#10;<g
   id="SVGRepo_tracerCarrier"
   stroke-linecap="round"
   stroke-linejoin="round" />&#10;&#10;<g
   id="SVGRepo_iconCarrier"> <g
   id="g3"> <g
   id="g2"> <path
   d="M15.562,3.803L15.562,3.803c-0.004-0.001-0.008-0.001-0.012,0c-0.004,0-0.008-0.001-0.012-0.001v0.001 c-5.156,0.063-9.334,4.274-9.334,9.445c0,5.172,4.178,9.381,9.334,9.445v0.001c0.004,0,0.008,0,0.012-0.001 c0.004,0,0.008,0.001,0.012,0.001v-0.001c5.157-0.062,9.334-4.271,9.334-9.445C24.897,8.079,20.719,3.868,15.562,3.803z"
   id="path1" /> <path
   d="M26.633,21.186c0.272-0.395,0.456-0.812,0.535-1.212c0.085-0.421,0.062-0.816-0.049-1.155l-0.002-0.002 c-0.002-0.007-0.004-0.015-0.006-0.021c-0.006-0.013-0.012-0.027-0.014-0.041l-0.002-0.005c-0.146-0.416-0.164-0.931-0.052-1.461 l-0.005-0.003c0.021-0.09,0.043-0.179,0.072-0.27c0.08-0.242,0.184-0.467,0.303-0.671c0.452-0.637,1.753-1.187,1.753-3.176 c0-2.082-1.678-2.646-1.994-3.552c-0.008-0.02-0.018-0.031-0.026-0.049c-0.017-0.044-0.034-0.086-0.049-0.131 c-0.201-0.635-0.218-1.265-0.052-1.762l0.013-0.034c0.108-0.321,0.135-0.706,0.065-1.115h-0.001V6.523 c-0.009-0.052-0.021-0.104-0.032-0.157L27.089,6.35c-0.012-0.047-0.024-0.095-0.038-0.142l-0.011-0.036 C27.03,6.131,27.016,6.089,27,6.049l-0.02-0.054l-0.039-0.099l-0.03-0.078l-0.03-0.064c-0.017-0.037-0.033-0.072-0.051-0.108 l-0.009-0.017c-0.083-0.16-0.179-0.318-0.29-0.47l-0.02-0.027L26.5,5.118c-0.303-0.411-0.665-0.73-1.04-0.939 c-0.374-0.211-0.759-0.312-1.112-0.309h-0.004c-0.009,0-0.016,0-0.022-0.001c-0.015,0.001-0.028,0.002-0.044,0.001h-0.006 c-0.439,0.012-0.936-0.131-1.405-0.403L22.864,3.47c-0.077-0.047-0.156-0.098-0.232-0.153c-0.537-0.396-0.918-0.897-1.074-1.396 l-0.012-0.036c-0.1-0.323-0.304-0.649-0.602-0.939V0.945c-0.038-0.038-0.078-0.075-0.119-0.109l-0.014-0.013 c-0.037-0.031-0.074-0.063-0.113-0.093l-0.029-0.023L20.563,0.63l-0.047-0.032l-0.09-0.059l-0.07-0.043l-0.062-0.035 c-0.035-0.021-0.07-0.039-0.105-0.057l-0.017-0.009c-0.159-0.081-0.33-0.153-0.51-0.211l-0.032-0.01l-0.02-0.007 c-0.486-0.152-0.967-0.197-1.394-0.147c-0.427,0.051-0.798,0.194-1.081,0.407l-0.004,0.001c-0.006,0.006-0.013,0.01-0.02,0.014 c-0.01,0.011-0.021,0.019-0.035,0.026l-0.003,0.003c-0.351,0.27-0.834,0.444-1.375,0.502v0.005 c-0.049,0.005-0.099,0.006-0.148,0.007c-0.05-0.001-0.1-0.001-0.148-0.007V0.974c-0.541-0.058-1.025-0.232-1.375-0.502 l-0.003-0.003C14.012,0.46,14,0.453,13.99,0.441c-0.007-0.004-0.014-0.008-0.02-0.014l-0.003-0.001 c-0.284-0.213-0.655-0.356-1.082-0.407c-0.426-0.05-0.906-0.005-1.394,0.147l-0.019,0.007l-0.032,0.011 c-0.18,0.058-0.35,0.13-0.51,0.211l-0.017,0.009c-0.035,0.018-0.07,0.036-0.105,0.057l-0.062,0.035l-0.07,0.043l-0.09,0.059 L10.539,0.63l-0.104,0.075l-0.03,0.024c-0.039,0.03-0.076,0.061-0.113,0.092l-0.014,0.013c-0.041,0.034-0.081,0.071-0.119,0.109 l-0.001,0.001C9.86,1.234,9.657,1.561,9.557,1.883L9.545,1.92C9.39,2.419,9.009,2.921,8.472,3.316 C8.395,3.373,8.315,3.423,8.239,3.47L8.235,3.466C7.766,3.738,7.27,3.881,6.831,3.87H6.825c-0.016,0.001-0.03,0-0.044-0.001 C6.772,3.87,6.767,3.87,6.757,3.87H6.754C6.399,3.867,6.016,3.967,5.642,4.178c-0.375,0.209-0.737,0.528-1.04,0.939L4.59,5.132 L4.57,5.16c-0.112,0.151-0.207,0.31-0.29,0.47L4.271,5.646c-0.017,0.036-0.034,0.071-0.05,0.108l-0.03,0.064L4.16,5.896 L4.121,5.996L4.103,6.049c-0.015,0.04-0.029,0.082-0.04,0.122L4.052,6.208C4.038,6.254,4.024,6.302,4.014,6.35L4.011,6.367 C3.999,6.419,3.986,6.473,3.978,6.523v0.002l0,0c-0.07,0.41-0.043,0.794,0.066,1.116l0.012,0.034 c0.166,0.497,0.149,1.127-0.052,1.762C3.99,9.481,3.972,9.523,3.955,9.567c-0.009,0.018-0.019,0.03-0.026,0.049 c-0.316,0.906-1.994,1.47-1.994,3.552c0,1.989,1.301,2.539,1.753,3.176c0.119,0.204,0.222,0.429,0.303,0.671 c0.029,0.091,0.052,0.18,0.072,0.27l-0.005,0.003c0.113,0.53,0.096,1.045-0.051,1.461l-0.002,0.005 c-0.002,0.014-0.008,0.028-0.014,0.041c-0.002,0.008-0.004,0.016-0.006,0.021l-0.002,0.002c-0.112,0.339-0.134,0.734-0.049,1.155 c0.079,0.399,0.263,0.817,0.535,1.212L0.79,28.078h3.924l1.993,3.022l3.391-5.584c0.027,0.027,0.045,0.06,0.074,0.086 c0.316,0.289,0.732,0.535,1.218,0.694c0.18,0.059,0.36,0.101,0.537,0.129l0.018,0.003c0.041,0.006,0.08,0.01,0.118,0.015 l0.074,0.01l0.082,0.007l0.106,0.007h0.058h0.129h0.036c0.049-0.003,0.099-0.005,0.146-0.01l0.018-0.001 c0.055-0.005,0.108-0.014,0.162-0.021h0.001c0.411-0.061,0.767-0.205,1.038-0.408l0.029-0.021 c0.401-0.299,0.976-0.475,1.609-0.494c0.633,0.02,1.208,0.195,1.609,0.494l0.028,0.021c0.271,0.203,0.627,0.349,1.039,0.408l0,0 c0.055,0.007,0.107,0.016,0.162,0.021l0.019,0.001c0.048,0.005,0.098,0.007,0.146,0.01h0.036h0.13h0.057l0.106-0.007l0.082-0.007 l0.074-0.01c0.038-0.005,0.077-0.009,0.118-0.015l0.018-0.003c0.178-0.028,0.357-0.07,0.537-0.129 c0.485-0.159,0.901-0.405,1.219-0.694c0.028-0.026,0.047-0.059,0.073-0.086l3.392,5.584l1.992-3.021h3.924L26.633,21.186z M25.257,16.134c-0.11,0.372-0.239,0.736-0.392,1.095c-0.516,1.218-1.252,2.312-2.191,3.251c-0.938,0.938-2.031,1.677-3.248,2.19 c-1.229,0.519-2.531,0.785-3.875,0.799c-1.343-0.014-2.646-0.28-3.874-0.799c-1.218-0.516-2.311-1.252-3.249-2.19 c-0.939-0.938-1.677-2.033-2.191-3.251c-0.152-0.357-0.281-0.723-0.392-1.095c-0.122-0.446-0.412-1.637-0.412-2.885 c0-1.581,0.412-2.885,0.412-2.885c0.11-0.371,0.239-0.736,0.392-1.096C6.752,8.05,7.49,6.958,8.429,6.019 c0.938-0.938,2.031-1.676,3.249-2.191c1.229-0.519,2.531-0.785,3.874-0.798c1.343,0.013,2.646,0.279,3.875,0.798 c1.217,0.515,2.311,1.253,3.248,2.191c0.939,0.939,1.678,2.032,2.191,3.249c0.152,0.359,0.281,0.725,0.392,1.096 c0,0,0.412,1.304,0.412,2.885C25.669,14.497,25.379,15.688,25.257,16.134z"
   id="path2" /> </g> </g> </g>&#10;&#10;<text
   xml:space="preserve"
   transform="matrix(0.03887625,0,0,0.03887625,6.9867179,-3.5198767)"
   id="text3"
   style="font-size:533.333px;font-family:Castellar;-inkscape-font-specification:'Castellar, @wght=900';font-variation-settings:'wght' 900;white-space:pre;shape-inside:url(#rect3);fill:#ffffff"><tspan
     x="36.486328"
     y="613.31788"
     id="tspan1">4</tspan></text></svg>
